src/assets/logon1u/logo white.svg

<svg width="133" height="61" viewBox="0 0 133 61" fill="none" xmlns="http://www.w3.org/2000/svg">
<g clip-path="url(#clip0_120_425)">
<path d="M40.06 16.46C35.86 12.12 30.33 9.92004 23.62 9.92004C16.91 9.92004 10.89 12.07 6.56 16.32C2.21 20.59 0 26.22 0 33.05V51.85C0 56.13 3.49 59.62 7.77 59.62C12.05 59.62 15.54 56.13 15.54 51.85V33.11C15.54 30.4 16.24 28.33 17.67 26.79C19.05 25.31 20.83 24.62 23.28 24.62C25.73 24.62 27.34 25.29 28.67 26.74C30.07 28.26 30.74 30.32 30.74 33.05L30.8 51.87C30.81 56.14 34.3 59.62 38.58 59.62C42.86 59.62 46.35 56.13 46.35 51.85V33.32C46.35 26.43 44.24 20.75 40.07 16.45L40.06 16.46Z" fill="white"/>
<path d="M92.81 53.15C97.03 57.47 102.56 59.66 109.27 59.63C116.26 59.61 122 57.43 126.31 53.17C130.65 48.89 132.83 43.25 132.81 36.41L132.75 17.61C132.74 13.33 129.24 9.84996 124.95 9.86996C120.67 9.87996 117.19 13.38 117.21 17.67L117.27 36.41C117.27 39.12 116.59 41.19 115.16 42.74C113.79 44.23 112.01 44.92 109.56 44.93C107.21 44.93 105.5 44.27 104.17 42.83C102.77 41.31 102.08 39.25 102.07 36.52L101.95 17.7C101.92 13.43 98.43 9.96996 94.14 9.97996C89.85 9.98996 86.38 13.49 86.4 17.78L86.46 36.31C86.48 43.2 88.61 48.87 92.8 53.16L92.81 53.15Z" fill="white"/>
<path d="M75.0501 2.36C74.9801 2.29 74.9201 2.22 74.8501 2.15C73.5501 0.83 71.7401 0 69.7301 0C67.4401 0 65.4001 1.08 64.0901 2.75L52.4201 14.23C49.6501 17 49.4701 21.51 52.1601 24.35C54.9401 27.3 59.6101 27.35 62.4501 24.5L62.5501 24.4V53.14C62.5501 57.05 65.6101 60.37 69.5201 60.48C73.5701 60.59 76.9001 57.33 76.9001 53.31V7.98C77.1101 5.99 76.4901 3.93 75.0401 2.36H75.0501Z" fill="white"/>
</g>
<defs>
<clipPath id="clip0_120_425">
<rect width="132.82" height="60.47" fill="white"/>
</clipPath>
</defs>
</svg>

<svg fill="none" height="61" viewBox="0 0 133 61" width="133" xmlns="http://www.w3.org/2000/svg" xmlns:xlink="http://www.w3.org/1999/xlink"><clipPath id="a"><path d="m0 0h132.82v60.47h-132.82z"/></clipPath><g clip-path="url(#a)" fill="#fff"><path d="m40.06 16.46c-4.2-4.34-9.73-6.53996-16.44-6.53996s-12.73 2.14996-17.06 6.39996c-4.35 4.27-6.56 9.9-6.56 16.73v18.8c0 4.28 3.49 7.77 7.77 7.77s7.77-3.49 7.77-7.77v-18.74c0-2.71.7-4.78 2.13-6.32 1.38-1.48 3.16-2.17 5.61-2.17s4.06.67 5.39 2.12c1.4 1.52 2.07 3.58 2.07 6.31l.06 18.82c.01 4.27 3.5 7.75 7.78 7.75s7.77-3.49 7.77-7.77v-18.53c0-6.89-2.11-12.57-6.28-16.87z"/><path d="m92.81 53.15c4.22 4.32 9.75 6.51 16.46 6.48 6.99-.02 12.73-2.2 17.04-6.46 4.34-4.28 6.52-9.92 6.5-16.76l-.06-18.8c-.01-4.28-3.51-7.76004-7.8-7.74004-4.28.01-7.76 3.51004-7.74 7.80004l.06 18.74c0 2.71-.68 4.78-2.11 6.33-1.37 1.49-3.15 2.18-5.6 2.19-2.35 0-4.06-.66-5.39-2.1-1.4-1.52-2.09-3.58-2.1-6.31l-.12-18.82c-.03-4.27-3.52-7.73004-7.81-7.72004s-7.76 3.51004-7.74 7.80004l.06 18.53c.02 6.89 2.15 12.56 6.34 16.85z"/><path d="m75.0501 2.36c-.07-.07-.13-.14-.2-.21-1.3-1.32-3.11-2.15-5.12-2.15-2.29 0-4.33 1.08-5.64 2.75l-11.67 11.48c-2.77 2.77-2.95 7.28-.26 10.12 2.78 2.95 7.45 3 10.29.15l.1-.1v28.74c0 3.91 3.06 7.23 6.97 7.34 4.05.11 7.38-3.15 7.38-7.17v-45.33c.21-1.99-.41-4.05-1.86-5.62z"/></g></svg>
